src/images/icons/menu.svg

<svg width="32" height="32" viewBox="0 0 32 32" fill="none" xmlns="http://www.w3.org/2000/svg">
<path fill-rule="evenodd" clip-rule="evenodd" d="M4.5835 9.33325C4.5835 8.91904 4.91928 8.58325 5.3335 8.58325H26.6668C27.081 8.58325 27.4168 8.91904 27.4168 9.33325C27.4168 9.74747 27.081 10.0833 26.6668 10.0833H5.3335C4.91928 10.0833 4.5835 9.74747 4.5835 9.33325ZM4.5835 15.9999C4.5835 15.5857 4.91928 15.2499 5.3335 15.2499L26.6668 15.2499C27.081 15.2499 27.4168 15.5857 27.4168 15.9999C27.4168 16.4141 27.081 16.7499 26.6668 16.7499L5.3335 16.7499C4.91928 16.7499 4.5835 16.4141 4.5835 15.9999ZM5.3335 21.9166C4.91928 21.9166 4.5835 22.2524 4.5835 22.6666C4.5835 23.0808 4.91928 23.4166 5.3335 23.4166H26.6668C27.081 23.4166 27.4168 23.0808 27.4168 22.6666C27.4168 22.2524 27.081 21.9166 26.6668 21.9166H5.3335Z" fill="black"/>
<path fill-rule="evenodd" clip-rule="evenodd" d="M4.5835 9.33325C4.5835 8.91904 4.91928 8.58325 5.3335 8.58325H26.6668C27.081 8.58325 27.4168 8.91904 27.4168 9.33325C27.4168 9.74747 27.081 10.0833 26.6668 10.0833H5.3335C4.91928 10.0833 4.5835 9.74747 4.5835 9.33325ZM4.5835 15.9999C4.5835 15.5857 4.91928 15.2499 5.3335 15.2499L26.6668 15.2499C27.081 15.2499 27.4168 15.5857 27.4168 15.9999C27.4168 16.4141 27.081 16.7499 26.6668 16.7499L5.3335 16.7499C4.91928 16.7499 4.5835 16.4141 4.5835 15.9999ZM5.3335 21.9166C4.91928 21.9166 4.5835 22.2524 4.5835 22.6666C4.5835 23.0808 4.91928 23.4166 5.3335 23.4166H26.6668C27.081 23.4166 27.4168 23.0808 27.4168 22.6666C27.4168 22.2524 27.081 21.9166 26.6668 21.9166H5.3335Z" fill="black" fill-opacity="0.2"/>
</svg>

<svg width="32" height="32" fill="none" xmlns="http://www.w3.org/2000/svg"><path fill-rule="evenodd" clip-rule="evenodd" d="M4.583 9.333a.75.75 0 0 1 .75-.75h21.334a.75.75 0 0 1 0 1.5H5.333a.75.75 0 0 1-.75-.75Zm0 6.667a.75.75 0 0 1 .75-.75h21.334a.75.75 0 0 1 0 1.5H5.333a.75.75 0 0 1-.75-.75Zm.75 5.917a.75.75 0 0 0 0 1.5h21.334a.75.75 0 0 0 0-1.5H5.333Z" fill="#000"/><path fill-rule="evenodd" clip-rule="evenodd" d="M4.583 9.333a.75.75 0 0 1 .75-.75h21.334a.75.75 0 0 1 0 1.5H5.333a.75.75 0 0 1-.75-.75Zm0 6.667a.75.75 0 0 1 .75-.75h21.334a.75.75 0 0 1 0 1.5H5.333a.75.75 0 0 1-.75-.75Zm.75 5.917a.75.75 0 0 0 0 1.5h21.334a.75.75 0 0 0 0-1.5H5.333Z" fill="#000" fill-opacity=".2"/></svg>
